X: 143
T: Ang Nang                                 (Name)
L: 1/8
M: 2/4
K: C
A A A G [I:setbarnb 1]| 
E E E A, | 
A A A G | 
E2z2 | 
A A A G | 
E C C A, | 
D D C G, | 
A,2z2 |]

@@@ Tune index: 8811
